assets/icon.svg

<?xml version="1.0" encoding="UTF-8" standalone="no"?>
<!-- Created with Inkscape (http://www.inkscape.org/) -->

<svg
   width="1024"
   height="1023.9999"
   viewBox="0 0 270.93334 270.93331"
   version="1.1"
   id="svg1"
   inkscape:version="1.3 (0e150ed6c4, 2023-07-21)"
   sodipodi:docname="icon.svg"
   xml:space="preserve"
   inkscape:export-filename="icon.png"
   inkscape:export-xdpi="96"
   inkscape:export-ydpi="96"
   xmlns:inkscape="http://www.inkscape.org/namespaces/inkscape"
   xmlns:sodipodi="http://sodipodi.sourceforge.net/DTD/sodipodi-0.dtd"
   xmlns="http://www.w3.org/2000/svg"
   xmlns:svg="http://www.w3.org/2000/svg"><sodipodi:namedview
     id="namedview1"
     pagecolor="#ffffff"
     bordercolor="#999999"
     borderopacity="1"
     inkscape:showpageshadow="0"
     inkscape:pageopacity="0"
     inkscape:pagecheckerboard="0"
     inkscape:deskcolor="#d1d1d1"
     inkscape:document-units="mm"
     inkscape:zoom="0.73386632"
     inkscape:cx="429.23349"
     inkscape:cy="820.99421"
     inkscape:window-width="2560"
     inkscape:window-height="1371"
     inkscape:window-x="0"
     inkscape:window-y="0"
     inkscape:window-maximized="1"
     inkscape:current-layer="layer1"
     showgrid="false" /><defs
     id="defs1"><rect
       x="234.97487"
       y="384.31168"
       width="592.03027"
       height="527.40607"
       id="rect4" /><inkscape:path-effect
       effect="fillet_chamfer"
       id="path-effect4"
       is_visible="true"
       lpeversion="1"
       nodesatellites_param="F,0,0,1,0,0,0,1 @ F,0,1,1,0,6.6145833,0,1 @ F,0,1,1,0,6.6145833,0,1 @ F,0,0,1,0,0,0,1"
       radius="25"
       unit="px"
       method="auto"
       mode="F"
       chamfer_steps="1"
       flexible="false"
       use_knot_distance="true"
       apply_no_radius="true"
       apply_with_radius="true"
       only_selected="true"
       hide_knots="false" /><inkscape:path-effect
       effect="fillet_chamfer"
       id="path-effect1"
       is_visible="true"
       lpeversion="1"
       nodesatellites_param="F,0,1,1,0,6.6145833,0,1 @ F,0,0,1,0,0,0,1 @ F,0,0,1,0,0,0,1 @ F,0,1,1,0,6.6145833,0,1"
       radius="25"
       unit="px"
       method="auto"
       mode="F"
       chamfer_steps="1"
       flexible="false"
       use_knot_distance="true"
       apply_no_radius="true"
       apply_with_radius="true"
       only_selected="true"
       hide_knots="false" /><style
       id="style1">.cls-1{fill:#5865f2;}</style></defs><g
     inkscape:label="Layer 1"
     inkscape:groupmode="layer"
     id="layer1"><rect
       style="fill:#5865f2;stroke-width:5.64594;stroke-linecap:round;stroke-linejoin:round"
       id="rect2"
       width="270.93332"
       height="270.93332"
       x="0"
       y="0"
       inkscape:label="Background" /><g
       id="g1"
       inkscape:label="Papyrus"
       transform="translate(0,-5.9202743)"><path
         id="rect1"
         style="font-variation-settings:'wght' 700;fill:#d9d9d9;fill-opacity:1;stroke-width:8.24969;stroke-linecap:round;stroke-linejoin:round"
         inkscape:label="right"
         d="M 135.72918 86.803709 L 135.46667 207.81079 L 219.56334 207.81079 A 6.6145833 6.6145833 0 0 0 226.17793 201.19621 L 226.17793 93.418293 A 6.6145833 6.6145833 0 0 0 219.56334 86.803709 L 135.72918 86.803709 z M 173.69534 128.15674 A 28.765427 28.765427 0 0 1 175.03118 130.8713 A 38.825575 38.825575 0 0 1 186.60153 130.8713 A 28.642208 28.642208 0 0 1 187.93685 128.15674 A 41.794729 41.794729 0 0 1 198.36309 131.3643 C 204.08278 139.7272 206.92463 149.15973 205.87529 160.04265 A 41.834477 41.834477 0 0 1 193.0802 166.45776 A 30.605746 30.605746 0 0 1 190.34187 162.04563 A 27.298735 27.298735 0 0 0 194.66254 159.98271 C 194.30481 159.74024 193.95105 159.47015 193.60524 159.18792 A 30.037353 30.037353 0 0 1 168.03936 159.18792 C 167.69753 159.45028 167.34376 159.72036 166.98206 159.98271 A 27.195392 27.195392 0 0 0 171.29445 162.04149 A 30.88398 30.88398 0 0 1 168.55612 166.45776 A 42.025267 42.025267 0 0 1 155.7693 160.03852 C 154.87498 150.65409 156.66375 141.1346 163.26187 131.37257 A 42.088862 42.088862 0 0 1 173.69534 128.15674 z M 172.41945 144.15938 C 169.86367 144.15938 167.87657 146.44083 167.87657 149.22316 C 167.87657 152.00549 169.93553 154.26729 172.42772 154.26729 C 174.9676 154.26729 176.93103 152.00549 176.97473 149.22316 C 177.01846 146.44083 174.97523 144.15938 172.41945 144.15938 z M 189.21687 144.15938 C 186.65712 144.15938 184.66986 146.44083 184.66986 149.22316 C 184.66986 152.00549 186.72072 154.26729 189.21687 154.26729 C 191.75675 154.26729 193.71657 152.00549 193.76027 149.22316 C 193.80398 146.44083 191.77663 144.15938 189.21687 144.15938 z " /><path
         style="font-variation-settings:'wght' 700;display:inline;fill:#989898;fill-opacity:1;stroke:none;stroke-width:5.29167;stroke-linecap:round;stroke-linejoin:round;stroke-opacity:1"
         d="m 135.46667,207.81061 10.92041,-11.84056 h -10.92041 v 11.84056"
         id="path2"
         inkscape:label="Binding" /><path
         id="path1"
         style="font-variation-settings:'wght' 700;display:inline;fill:#ffffff;stroke-width:8.24969;stroke-linecap:round;stroke-linejoin:round"
         inkscape:label="left"
         d="M 51.369991 74.963088 A 6.6145833 6.6145833 0 0 0 44.755408 81.577672 L 44.755408 189.35559 A 6.6145833 6.6145833 0 0 0 51.369991 195.97017 L 146.38693 195.97017 L 135.72918 74.963088 L 51.369991 74.963088 z M 70.303719 105.03981 L 91.911186 105.03981 C 101.14219 105.03981 108.25639 107.65608 113.25407 112.88894 C 118.31054 118.1218 120.83914 125.64793 120.83914 135.46689 C 120.83914 145.28585 118.31054 152.81146 113.25407 158.04432 C 108.25639 163.27718 101.14219 165.89397 91.911186 165.89397 L 70.303719 165.89397 L 70.303719 105.03981 z M 83.179936 116.68147 L 83.179936 154.25231 L 91.911186 154.25231 C 96.850065 154.25231 100.76021 152.84119 103.64122 150.01897 C 106.52223 147.19676 107.9624 142.34604 107.9624 135.46689 C 107.9624 128.58774 106.52223 123.73702 103.64122 120.91481 C 100.76021 118.09259 96.850065 116.68147 91.911186 116.68147 L 83.179936 116.68147 z " /></g></g></svg>

<?xml version="1.0" encoding="UTF-8"?>
<!-- Created with Inkscape (http://www.inkscape.org/) -->
<svg width="1024" height="1024" version="1.1" viewBox="0 0 270.93 270.93" xml:space="preserve" xmlns="http://www.w3.org/2000/svg"><defs><style>.cls-1{fill:#5865f2;}</style></defs><rect width="270.93" height="270.93" fill="#5865f2" stroke-linecap="round" stroke-linejoin="round" stroke-width="5.6459"/><g transform="translate(0 -5.9203)"><path d="m135.73 86.804-0.26251 121.01h84.097a6.6146 6.6146 0 0 0 6.6146-6.6146v-107.78a6.6146 6.6146 0 0 0-6.6146-6.6146h-83.834zm37.966 41.353a28.765 28.765 0 0 1 1.3358 2.7146 38.826 38.826 0 0 1 11.57 0 28.642 28.642 0 0 1 1.3353-2.7146 41.795 41.795 0 0 1 10.426 3.2076c5.7197 8.3629 8.5615 17.795 7.5122 28.678a41.834 41.834 0 0 1-12.795 6.4151 30.606 30.606 0 0 1-2.7383-4.4121 27.299 27.299 0 0 0 4.3207-2.0629c-0.35773-0.24247-0.71149-0.51256-1.0573-0.79479a30.037 30.037 0 0 1-25.566 0c-0.34183 0.26236-0.6956 0.53244-1.0573 0.79479a27.195 27.195 0 0 0 4.3124 2.0588 30.884 30.884 0 0 1-2.7383 4.4163 42.025 42.025 0 0 1-12.787-6.4192c-0.89432-9.3844 0.89445-18.904 7.4926-28.666a42.089 42.089 0 0 1 10.433-3.2158zm-1.2759 16.003c-2.5558 0-4.5429 2.2814-4.5429 5.0638s2.059 5.0441 4.5512 5.0441c2.5399 0 4.5033-2.2618 4.547-5.0441 0.04373-2.7823-1.9995-5.0638-4.5553-5.0638zm16.797 0c-2.5598 0-4.547 2.2814-4.547 5.0638s2.0509 5.0441 4.547 5.0441c2.5399 0 4.4997-2.2618 4.5434-5.0441 0.04371-2.7823-1.9836-5.0638-4.5434-5.0638z" fill="#d9d9d9" stroke-linecap="round" stroke-linejoin="round" stroke-width="8.2497" style="font-variation-settings:'wght' 700"/><path d="m135.47 207.81 10.92-11.841h-10.92v11.841" fill="#989898" style="font-variation-settings:'wght' 700"/><path d="m51.37 74.963a6.6146 6.6146 0 0 0-6.6146 6.6146v107.78a6.6146 6.6146 0 0 0 6.6146 6.6146h95.017l-10.658-121.01h-84.359zm18.934 30.077h21.607c9.231 0 16.345 2.6163 21.343 7.8491 5.0565 5.2329 7.5851 12.759 7.5851 22.578s-2.5286 17.345-7.5851 22.577c-4.9977 5.2329-12.112 7.8496-21.343 7.8496h-21.607v-60.854zm12.876 11.642v37.571h8.7312c4.9389 0 8.849-1.4111 11.73-4.2333 2.881-2.8222 4.3212-7.6729 4.3212-14.552s-1.4402-11.73-4.3212-14.552c-2.881-2.8222-6.7912-4.2333-11.73-4.2333h-8.7312z" fill="#fff" stroke-linecap="round" stroke-linejoin="round" stroke-width="8.2497" style="font-variation-settings:'wght' 700"/></g></svg>
